assets/1. F-P/Hourglass done/Color/Hourglass.Done-color.svg

<svg width="100%" height="100%" viewBox="0 0 32 32" fill="none" xmlns="http://www.w3.org/2000/svg">
<g filter="url(#filter0_i_18_13233)">
<path d="M25 6.40022V3.16943H7V6.40022C7 10.4002 9.8 13.7002 13.5 14.6002C13.8 14.7002 14 15.0002 14 15.3002V16.5002C14 16.8002 13.8 17.1002 13.5 17.1002C9.8 18.0002 7 21.3002 7 25.3002V28.7463H25V25.3002C25 21.3002 22.2 18.0002 18.5 17.1002C18.2 17.0002 18 16.8002 18 16.5002V15.3002C18 15.0002 18.2 14.7002 18.5 14.7002C22.2 13.7002 25 10.4002 25 6.40022Z" fill="#9FD6FF"/>
<path d="M25 6.40022V3.16943H7V6.40022C7 10.4002 9.8 13.7002 13.5 14.6002C13.8 14.7002 14 15.0002 14 15.3002V16.5002C14 16.8002 13.8 17.1002 13.5 17.1002C9.8 18.0002 7 21.3002 7 25.3002V28.7463H25V25.3002C25 21.3002 22.2 18.0002 18.5 17.1002C18.2 17.0002 18 16.8002 18 16.5002V15.3002C18 15.0002 18.2 14.7002 18.5 14.7002C22.2 13.7002 25 10.4002 25 6.40022Z" fill="url(#paint0_radial_18_13233)"/>
<path d="M25 6.40022V3.16943H7V6.40022C7 10.4002 9.8 13.7002 13.5 14.6002C13.8 14.7002 14 15.0002 14 15.3002V16.5002C14 16.8002 13.8 17.1002 13.5 17.1002C9.8 18.0002 7 21.3002 7 25.3002V28.7463H25V25.3002C25 21.3002 22.2 18.0002 18.5 17.1002C18.2 17.0002 18 16.8002 18 16.5002V15.3002C18 15.0002 18.2 14.7002 18.5 14.7002C22.2 13.7002 25 10.4002 25 6.40022Z" fill="url(#paint1_radial_18_13233)"/>
</g>
<path d="M25 4H7C6.4 4 6 3.6 6 3C6 2.4 6.4 2 7 2H25C25.6 2 26 2.4 26 3C26 3.6 25.6 4 25 4Z" fill="url(#paint2_radial_18_13233)"/>
<path d="M25 4H7C6.4 4 6 3.6 6 3C6 2.4 6.4 2 7 2H25C25.6 2 26 2.4 26 3C26 3.6 25.6 4 25 4Z" fill="url(#paint3_linear_18_13233)"/>
<path d="M25 4H7C6.4 4 6 3.6 6 3C6 2.4 6.4 2 7 2H25C25.6 2 26 2.4 26 3C26 3.6 25.6 4 25 4Z" fill="url(#paint4_linear_18_13233)"/>
<path d="M25 30H7C6.4 30 6 29.6 6 29C6 28.4 6.4 28 7 28H25C25.6 28 26 28.4 26 29C26 29.6 25.6 30 25 30Z" fill="url(#paint5_radial_18_13233)"/>
<path d="M25 30H7C6.4 30 6 29.6 6 29C6 28.4 6.4 28 7 28H25C25.6 28 26 28.4 26 29C26 29.6 25.6 30 25 30Z" fill="url(#paint6_linear_18_13233)"/>
<path d="M25 30H7C6.4 30 6 29.6 6 29C6 28.4 6.4 28 7 28H25C25.6 28 26 28.4 26 29C26 29.6 25.6 30 25 30Z" fill="url(#paint7_linear_18_13233)"/>
<g filter="url(#filter1_i_18_13233)">
<path d="M17 19.4V15.1C17 14.4 17.5 13.9 18.1 13.7C19.8 13.3 21.3 12.3 22.4 11C23.1 10.2 22.5 9 21.5 9C18.6 9 13.4 9 10.5 9C9.5 9 8.9 10.2 9.6 11C10.7 12.3 12.2 13.2 13.9 13.7C14.6 13.9 15 14.4 15 15.1V19C15 19.7 14.7 20 14.4 20.1C10.7 20.8 8 23.6 8 26.9V28H24V26.9C24 23.6 21.3 20.8 17.6 20.1C17.3 20.1 17 19.8 17 19.4Z" fill="url(#paint8_radial_18_13233)"/>
<path d="M17 19.4V15.1C17 14.4 17.5 13.9 18.1 13.7C19.8 13.3 21.3 12.3 22.4 11C23.1 10.2 22.5 9 21.5 9C18.6 9 13.4 9 10.5 9C9.5 9 8.9 10.2 9.6 11C10.7 12.3 12.2 13.2 13.9 13.7C14.6 13.9 15 14.4 15 15.1V19C15 19.7 14.7 20 14.4 20.1C10.7 20.8 8 23.6 8 26.9V28H24V26.9C24 23.6 21.3 20.8 17.6 20.1C17.3 20.1 17 19.8 17 19.4Z" fill="url(#paint9_radial_18_13233)"/>
<path d="M17 19.4V15.1C17 14.4 17.5 13.9 18.1 13.7C19.8 13.3 21.3 12.3 22.4 11C23.1 10.2 22.5 9 21.5 9C18.6 9 13.4 9 10.5 9C9.5 9 8.9 10.2 9.6 11C10.7 12.3 12.2 13.2 13.9 13.7C14.6 13.9 15 14.4 15 15.1V19C15 19.7 14.7 20 14.4 20.1C10.7 20.8 8 23.6 8 26.9V28H24V26.9C24 23.6 21.3 20.8 17.6 20.1C17.3 20.1 17 19.8 17 19.4Z" fill="url(#paint10_radial_18_13233)"/>
</g>
<path d="M17 19.4V15.1C17 14.4 17.5 13.9 18.1 13.7C19.8 13.3 21.3 12.3 22.4 11C23.1 10.2 22.5 9 21.5 9C18.6 9 13.4 9 10.5 9C9.5 9 8.9 10.2 9.6 11C10.7 12.3 12.2 13.2 13.9 13.7C14.6 13.9 15 14.4 15 15.1V19C15 19.7 14.7 20 14.4 20.1C10.7 20.8 8 23.6 8 26.9V28H24V26.9C24 23.6 21.3 20.8 17.6 20.1C17.3 20.1 17 19.8 17 19.4Z" fill="url(#paint11_radial_18_13233)"/>
<path d="M17 19.4V15.1C17 14.4 17.5 13.9 18.1 13.7C19.8 13.3 21.3 12.3 22.4 11C23.1 10.2 22.5 9 21.5 9C18.6 9 13.4 9 10.5 9C9.5 9 8.9 10.2 9.6 11C10.7 12.3 12.2 13.2 13.9 13.7C14.6 13.9 15 14.4 15 15.1V19C15 19.7 14.7 20 14.4 20.1C10.7 20.8 8 23.6 8 26.9V28H24V26.9C24 23.6 21.3 20.8 17.6 20.1C17.3 20.1 17 19.8 17 19.4Z" fill="url(#paint12_radial_18_13233)"/>
<path d="M22.4 26.8C21.9 26.8 21.5 26.4 21.5 25.9C21.3 24 20.3 21.4 17.9 20.5C17.4 20.3 17.2 19.8 17.4 19.3C17.6 18.8 18.1 18.6 18.6 18.8C20 19.3 21.2 20.3 22 21.7C22.8 22.9 23.2 24.3 23.3 25.9C23.4 26.3 23 26.8 22.4 26.8Z" fill="url(#paint13_linear_18_13233)"/>
<path d="M22.4 4.90015C21.9 4.90015 21.5 5.30015 21.5 5.80015C21.3 7.70015 20.3 10.3001 17.9 11.2001C17.4 11.4001 17.2 11.9001 17.4 12.4001C17.6 12.9001 18.1 13.1001 18.6 12.9001C20 12.4001 21.2 11.4001 22 10.0001C22.8 8.80015 23.2 7.40015 23.3 5.80015C23.4 5.40015 23 5.00015 22.4 4.90015Z" fill="url(#paint14_linear_18_13233)"/>
<g filter="url(#filter2_f_18_13233)">
<path d="M16.0483 19.1762C16.0483 19.8914 15.784 20.2159 15.6518 20.2887H17.1116C16.7079 20.0186 16.6551 19.4345 16.6791 19.1762L16.6791 14.5872C16.6791 14.0787 17.0756 13.7198 17.2739 13.7131H15.5257C15.9726 13.9356 16.0603 14.4614 16.0483 14.5872V19.1762Z" fill="#FFDF81"/>
</g>
<defs>
<filter id="filter0_i_18_13233" x="7" y="3.16943" width="18" height="25.5769" filterUnits="userSpaceOnUse" color-interpolation-filters="sRGB">
<feFlood flood-opacity="0" result="BackgroundImageFix"/>
<feBlend mode="normal" in="SourceGraphic" in2="BackgroundImageFix" result="shape"/>
<feColorMatrix in="SourceAlpha" type="matrix" values="0 0 0 0 0 0 0 0 0 0 0 0 0 0 0 0 0 0 127 0" result="hardAlpha"/>
<feOffset/>
<feGaussianBlur stdDeviation="0.5"/>
<feComposite in2="hardAlpha" operator="arithmetic" k2="-1" k3="1"/>
<feColorMatrix type="matrix" values="0 0 0 0 0.619608 0 0 0 0 0.756863 0 0 0 0 0.87451 0 0 0 1 0"/>
<feBlend mode="normal" in2="shape" result="effect1_innerShadow_18_13233"/>
</filter>
<filter id="filter1_i_18_13233" x="8" y="9" width="16.3" height="19" filterUnits="userSpaceOnUse" color-interpolation-filters="sRGB">
<feFlood flood-opacity="0" result="BackgroundImageFix"/>
<feBlend mode="normal" in="SourceGraphic" in2="BackgroundImageFix" result="shape"/>
<feColorMatrix in="SourceAlpha" type="matrix" values="0 0 0 0 0 0 0 0 0 0 0 0 0 0 0 0 0 0 127 0" result="hardAlpha"/>
<feOffset dx="0.3"/>
<feGaussianBlur stdDeviation="0.3"/>
<feComposite in2="hardAlpha" operator="arithmetic" k2="-1" k3="1"/>
<feColorMatrix type="matrix" values="0 0 0 0 0.705882 0 0 0 0 0.541176 0 0 0 0 0.384314 0 0 0 1 0"/>
<feBlend mode="normal" in2="shape" result="effect1_innerShadow_18_13233"/>
</filter>
<filter id="filter2_f_18_13233" x="14.7757" y="12.9631" width="3.2482" height="8.07568" filterUnits="userSpaceOnUse" color-interpolation-filters="sRGB">
<feFlood flood-opacity="0" result="BackgroundImageFix"/>
<feBlend mode="normal" in="SourceGraphic" in2="BackgroundImageFix" result="shape"/>
<feGaussianBlur stdDeviation="0.375" result="effect1_foregroundBlur_18_13233"/>
</filter>
<radialGradient id="paint0_radial_18_13233" cx="0" cy="0" r="1" gradientUnits="userSpaceOnUse" gradientTransform="translate(20.4325 22.911) rotate(131.055) scale(6.74885 5.47091)">
<stop stop-color="#C4F4FF"/>
<stop offset="1" stop-color="#C4F4FF" stop-opacity="0"/>
</radialGradient>
<radialGradient id="paint1_radial_18_13233" cx="0" cy="0" r="1" gradientUnits="userSpaceOnUse" gradientTransform="translate(21.3066 4.41821) rotate(90) scale(5.61976 11.0115)">
<stop stop-color="#C4F4FF"/>
<stop offset="1" stop-color="#C4F4FF" stop-opacity="0"/>
</radialGradient>
<radialGradient id="paint2_radial_18_13233" cx="0" cy="0" r="1" gradientUnits="userSpaceOnUse" gradientTransform="translate(20.5625 3) rotate(90) scale(1 12.625)">
<stop stop-color="#CDCFCF"/>
<stop offset="1" stop-color="#A9A9A9"/>
</radialGradient>
<linearGradient id="paint3_linear_18_13233" x1="3.9375" y1="3.2655" x2="16" y2="3.2655" gradientUnits="userSpaceOnUse">
<stop stop-color="#707477"/>
<stop offset="1" stop-color="#707477" stop-opacity="0"/>
</linearGradient>
<linearGradient id="paint4_linear_18_13233" x1="16" y1="4.828" x2="16" y2="3.5155" gradientUnits="userSpaceOnUse">
<stop stop-color="#707477"/>
<stop offset="1" stop-color="#707477" stop-opacity="0"/>
</linearGradient>
<radialGradient id="paint5_radial_18_13233" cx="0" cy="0" r="1" gradientUnits="userSpaceOnUse" gradientTransform="translate(20.5625 28.6405) rotate(90) scale(1.125 14.2031)">
<stop stop-color="#CDCFCF"/>
<stop offset="1" stop-color="#A9A9A9"/>
</radialGradient>
<linearGradient id="paint6_linear_18_13233" x1="3.9375" y1="29.2655" x2="16" y2="29.2655" gradientUnits="userSpaceOnUse">
<stop stop-color="#707477"/>
<stop offset="1" stop-color="#707477" stop-opacity="0"/>
</linearGradient>
<linearGradient id="paint7_linear_18_13233" x1="16" y1="30.2968" x2="16" y2="29.328" gradientUnits="userSpaceOnUse">
<stop stop-color="#7CA0B3"/>
<stop offset="1" stop-color="#7CA0B3" stop-opacity="0"/>
</linearGradient>
<radialGradient id="paint8_radial_18_13233" cx="0" cy="0" r="1" gradientUnits="userSpaceOnUse" gradientTransform="translate(19.8125 24.4206) rotate(90) scale(9.93292 11.4611)">
<stop offset="0.088" stop-color="#FFD68C"/>
<stop offset="1" stop-color="#E69E45"/>
</radialGradient>
<radialGradient id="paint9_radial_18_13233" cx="0" cy="0" r="1" gradientUnits="userSpaceOnUse" gradientTransform="translate(21.3125 8.578) rotate(132.427) scale(7.8745 6.63116)">
<stop stop-color="#F3C169"/>
<stop offset="1" stop-color="#F3C169" stop-opacity="0"/>
</radialGradient>
<radialGradient id="paint10_radial_18_13233" cx="0" cy="0" r="1" gradientUnits="userSpaceOnUse" gradientTransform="translate(24.8825 21.5599) rotate(166.573) scale(18.1366 27.5333)">
<stop offset="0.667023" stop-color="#B7845C" stop-opacity="0"/>
<stop offset="1" stop-color="#B7845C"/>
</radialGradient>
<radialGradient id="paint11_radial_18_13233" cx="0" cy="0" r="1" gradientUnits="userSpaceOnUse" gradientTransform="translate(10.4996 11.8654) rotate(-21.309) scale(5.90402 5.68198)">
<stop stop-color="#B69E6D"/>
<stop offset="1" stop-color="#B69E6D" stop-opacity="0"/>
</radialGradient>
<radialGradient id="paint12_radial_18_13233" cx="0" cy="0" r="1" gradientUnits="userSpaceOnUse" gradientTransform="translate(20.8299 9.99803) rotate(180) scale(9.6548 1.6173)">
<stop stop-color="#FFE379"/>
<stop offset="0.40625" stop-color="#FFCB56"/>
<stop offset="1" stop-color="#FFCB56" stop-opacity="0"/>
</radialGradient>
<linearGradient id="paint13_linear_18_13233" x1="19.9375" y1="20.203" x2="20.75" y2="26.8" gradientUnits="userSpaceOnUse">
<stop stop-color="white"/>
<stop offset="0.821922" stop-color="white" stop-opacity="0"/>
</linearGradient>
<linearGradient id="paint14_linear_18_13233" x1="22.9375" y1="5.32816" x2="19" y2="12.5782" gradientUnits="userSpaceOnUse">
<stop stop-color="white"/>
<stop offset="0.821922" stop-color="white" stop-opacity="0"/>
</linearGradient>
</defs>
</svg>

<svg width="100%" height="100%" viewBox="0 0 32 32" xmlns="http://www.w3.org/2000/svg"><g filter="url(#a)"><path fill="#9FD6FF" d="M25 6.4V3.17H7V6.4c0 4 2.8 7.3 6.5 8.2.3.1.5.4.5.7v1.2c0 .3-.2.6-.5.6C9.8 18 7 21.3 7 25.3v3.446h18V25.3c0-4-2.8-7.3-6.5-8.2-.3-.1-.5-.3-.5-.6v-1.2c0-.3.2-.6.5-.6 3.7-1 6.5-4.3 6.5-8.3"/><path fill="url(#b)" d="M25 6.4V3.17H7V6.4c0 4 2.8 7.3 6.5 8.2.3.1.5.4.5.7v1.2c0 .3-.2.6-.5.6C9.8 18 7 21.3 7 25.3v3.446h18V25.3c0-4-2.8-7.3-6.5-8.2-.3-.1-.5-.3-.5-.6v-1.2c0-.3.2-.6.5-.6 3.7-1 6.5-4.3 6.5-8.3"/><path fill="url(#c)" d="M25 6.4V3.17H7V6.4c0 4 2.8 7.3 6.5 8.2.3.1.5.4.5.7v1.2c0 .3-.2.6-.5.6C9.8 18 7 21.3 7 25.3v3.446h18V25.3c0-4-2.8-7.3-6.5-8.2-.3-.1-.5-.3-.5-.6v-1.2c0-.3.2-.6.5-.6 3.7-1 6.5-4.3 6.5-8.3"/></g><path fill="url(#d)" d="M25 4H7c-.6 0-1-.4-1-1s.4-1 1-1h18c.6 0 1 .4 1 1s-.4 1-1 1"/><path fill="url(#e)" d="M25 4H7c-.6 0-1-.4-1-1s.4-1 1-1h18c.6 0 1 .4 1 1s-.4 1-1 1"/><path fill="url(#f)" d="M25 4H7c-.6 0-1-.4-1-1s.4-1 1-1h18c.6 0 1 .4 1 1s-.4 1-1 1"/><path fill="url(#g)" d="M25 30H7c-.6 0-1-.4-1-1s.4-1 1-1h18c.6 0 1 .4 1 1s-.4 1-1 1"/><path fill="url(#h)" d="M25 30H7c-.6 0-1-.4-1-1s.4-1 1-1h18c.6 0 1 .4 1 1s-.4 1-1 1"/><path fill="url(#i)" d="M25 30H7c-.6 0-1-.4-1-1s.4-1 1-1h18c.6 0 1 .4 1 1s-.4 1-1 1"/><g filter="url(#j)"><path fill="url(#k)" d="M17 19.4v-4.3c0-.7.5-1.2 1.1-1.4 1.7-.4 3.2-1.4 4.3-2.7.7-.8.1-2-.9-2h-11c-1 0-1.6 1.2-.9 2 1.1 1.3 2.6 2.2 4.3 2.7.7.2 1.1.7 1.1 1.4V19c0 .7-.3 1-.6 1.1-3.7.7-6.4 3.5-6.4 6.8V28h16v-1.1c0-3.3-2.7-6.1-6.4-6.8-.3 0-.6-.3-.6-.7"/><path fill="url(#l)" d="M17 19.4v-4.3c0-.7.5-1.2 1.1-1.4 1.7-.4 3.2-1.4 4.3-2.7.7-.8.1-2-.9-2h-11c-1 0-1.6 1.2-.9 2 1.1 1.3 2.6 2.2 4.3 2.7.7.2 1.1.7 1.1 1.4V19c0 .7-.3 1-.6 1.1-3.7.7-6.4 3.5-6.4 6.8V28h16v-1.1c0-3.3-2.7-6.1-6.4-6.8-.3 0-.6-.3-.6-.7"/><path fill="url(#m)" d="M17 19.4v-4.3c0-.7.5-1.2 1.1-1.4 1.7-.4 3.2-1.4 4.3-2.7.7-.8.1-2-.9-2h-11c-1 0-1.6 1.2-.9 2 1.1 1.3 2.6 2.2 4.3 2.7.7.2 1.1.7 1.1 1.4V19c0 .7-.3 1-.6 1.1-3.7.7-6.4 3.5-6.4 6.8V28h16v-1.1c0-3.3-2.7-6.1-6.4-6.8-.3 0-.6-.3-.6-.7"/></g><path fill="url(#n)" d="M17 19.4v-4.3c0-.7.5-1.2 1.1-1.4 1.7-.4 3.2-1.4 4.3-2.7.7-.8.1-2-.9-2h-11c-1 0-1.6 1.2-.9 2 1.1 1.3 2.6 2.2 4.3 2.7.7.2 1.1.7 1.1 1.4V19c0 .7-.3 1-.6 1.1-3.7.7-6.4 3.5-6.4 6.8V28h16v-1.1c0-3.3-2.7-6.1-6.4-6.8-.3 0-.6-.3-.6-.7"/><path fill="url(#o)" d="M17 19.4v-4.3c0-.7.5-1.2 1.1-1.4 1.7-.4 3.2-1.4 4.3-2.7.7-.8.1-2-.9-2h-11c-1 0-1.6 1.2-.9 2 1.1 1.3 2.6 2.2 4.3 2.7.7.2 1.1.7 1.1 1.4V19c0 .7-.3 1-.6 1.1-3.7.7-6.4 3.5-6.4 6.8V28h16v-1.1c0-3.3-2.7-6.1-6.4-6.8-.3 0-.6-.3-.6-.7"/><path fill="url(#p)" d="M22.4 26.8c-.5 0-.9-.4-.9-.9-.2-1.9-1.2-4.5-3.6-5.4-.5-.2-.7-.7-.5-1.2s.7-.7 1.2-.5c1.4.5 2.6 1.5 3.4 2.9.8 1.2 1.2 2.6 1.3 4.2.1.4-.3.9-.9.9"/><path fill="url(#q)" d="M22.4 4.9c-.5 0-.9.4-.9.9-.2 1.9-1.2 4.5-3.6 5.4-.5.2-.7.7-.5 1.2s.7.7 1.2.5c1.4-.5 2.6-1.5 3.4-2.9.8-1.2 1.2-2.6 1.3-4.2.1-.4-.3-.8-.9-.9"/><g filter="url(#r)"><path fill="#FFDF81" d="M16.048 19.176c0 .715-.264 1.04-.396 1.113h1.46c-.404-.27-.457-.855-.433-1.113v-4.589c0-.508.397-.867.595-.874h-1.748c.447.223.534.748.522.874z"/></g><defs><radialGradient id="b" cx="0" cy="0" r="1" gradientTransform="matrix(-4.43253 5.08917 -4.1255 -3.5932 20.433 22.911)" gradientUnits="userSpaceOnUse"><stop stop-color="#C4F4FF"/><stop offset="1" stop-color="#C4F4FF" stop-opacity="0"/></radialGradient><radialGradient id="c" cx="0" cy="0" r="1" gradientTransform="matrix(0 5.61976 -11.0115 0 21.307 4.418)" gradientUnits="userSpaceOnUse"><stop stop-color="#C4F4FF"/><stop offset="1" stop-color="#C4F4FF" stop-opacity="0"/></radialGradient><radialGradient id="d" cx="0" cy="0" r="1" gradientTransform="matrix(0 1 -12.625 0 20.563 3)" gradientUnits="userSpaceOnUse"><stop stop-color="#CDCFCF"/><stop offset="1" stop-color="#A9A9A9"/></radialGradient><radialGradient id="g" cx="0" cy="0" r="1" gradientTransform="matrix(0 1.125 -14.2031 0 20.563 28.64)" gradientUnits="userSpaceOnUse"><stop stop-color="#CDCFCF"/><stop offset="1" stop-color="#A9A9A9"/></radialGradient><radialGradient id="k" cx="0" cy="0" r="1" gradientTransform="matrix(0 9.93292 -11.4611 0 19.813 24.42)" gradientUnits="userSpaceOnUse"><stop offset=".088" stop-color="#FFD68C"/><stop offset="1" stop-color="#E69E45"/></radialGradient><radialGradient id="l" cx="0" cy="0" r="1" gradientTransform="matrix(-5.31253 5.81246 -4.8947 -4.47371 21.313 8.578)" gradientUnits="userSpaceOnUse"><stop stop-color="#F3C169"/><stop offset="1" stop-color="#F3C169" stop-opacity="0"/></radialGradient><radialGradient id="m" cx="0" cy="0" r="1" gradientTransform="matrix(-17.64086 4.21143 -6.3934 -26.78072 24.883 21.56)" gradientUnits="userSpaceOnUse"><stop offset=".667" stop-color="#B7845C" stop-opacity="0"/><stop offset="1" stop-color="#B7845C"/></radialGradient><radialGradient id="n" cx="0" cy="0" r="1" gradientTransform="matrix(5.50039 -2.1455 2.06482 5.29353 10.5 11.865)" gradientUnits="userSpaceOnUse"><stop stop-color="#B69E6D"/><stop offset="1" stop-color="#B69E6D" stop-opacity="0"/></radialGradient><radialGradient id="o" cx="0" cy="0" r="1" gradientTransform="matrix(-9.6548 0 0 -1.6173 20.83 9.998)" gradientUnits="userSpaceOnUse"><stop stop-color="#FFE379"/><stop offset=".406" stop-color="#FFCB56"/><stop offset="1" stop-color="#FFCB56" stop-opacity="0"/></radialGradient><linearGradient id="e" x1="3.938" x2="16" y1="3.265" y2="3.265" gradientUnits="userSpaceOnUse"><stop stop-color="#707477"/><stop offset="1" stop-color="#707477" stop-opacity="0"/></linearGradient><linearGradient id="f" x1="16" x2="16" y1="4.828" y2="3.515" gradientUnits="userSpaceOnUse"><stop stop-color="#707477"/><stop offset="1" stop-color="#707477" stop-opacity="0"/></linearGradient><linearGradient id="h" x1="3.938" x2="16" y1="29.265" y2="29.265" gradientUnits="userSpaceOnUse"><stop stop-color="#707477"/><stop offset="1" stop-color="#707477" stop-opacity="0"/></linearGradient><linearGradient id="i" x1="16" x2="16" y1="30.297" y2="29.328" gradientUnits="userSpaceOnUse"><stop stop-color="#7CA0B3"/><stop offset="1" stop-color="#7CA0B3" stop-opacity="0"/></linearGradient><linearGradient id="p" x1="19.938" x2="20.75" y1="20.203" y2="26.8" gradientUnits="userSpaceOnUse"><stop stop-color="#fff"/><stop offset=".822" stop-color="#fff" stop-opacity="0"/></linearGradient><linearGradient id="q" x1="22.938" x2="19" y1="5.328" y2="12.578" gradientUnits="userSpaceOnUse"><stop stop-color="#fff"/><stop offset=".822" stop-color="#fff" stop-opacity="0"/></linearGradient><filter id="a" width="18" height="25.577" x="7" y="3.169" color-interpolation-filters="sRGB" filterUnits="userSpaceOnUse"><feFlood flood-opacity="0" result="BackgroundImageFix"/><feBlend in="SourceGraphic" in2="BackgroundImageFix" result="shape"/><feColorMatrix in="SourceAlpha" result="hardAlpha" values="0 0 0 0 0 0 0 0 0 0 0 0 0 0 0 0 0 0 127 0"/><feOffset/><feGaussianBlur stdDeviation=".5"/><feComposite in2="hardAlpha" k2="-1" k3="1" operator="arithmetic"/><feColorMatrix values="0 0 0 0 0.619608 0 0 0 0 0.756863 0 0 0 0 0.87451 0 0 0 1 0"/><feBlend in2="shape" result="effect1_innerShadow_18_13233"/></filter><filter id="j" width="16.3" height="19" x="8" y="9" color-interpolation-filters="sRGB" filterUnits="userSpaceOnUse"><feFlood flood-opacity="0" result="BackgroundImageFix"/><feBlend in="SourceGraphic" in2="BackgroundImageFix" result="shape"/><feColorMatrix in="SourceAlpha" result="hardAlpha" values="0 0 0 0 0 0 0 0 0 0 0 0 0 0 0 0 0 0 127 0"/><feOffset dx=".3"/><feGaussianBlur stdDeviation=".3"/><feComposite in2="hardAlpha" k2="-1" k3="1" operator="arithmetic"/><feColorMatrix values="0 0 0 0 0.705882 0 0 0 0 0.541176 0 0 0 0 0.384314 0 0 0 1 0"/><feBlend in2="shape" result="effect1_innerShadow_18_13233"/></filter><filter id="r" width="3.248" height="8.076" x="14.776" y="12.963" color-interpolation-filters="sRGB" filterUnits="userSpaceOnUse"><feFlood flood-opacity="0" result="BackgroundImageFix"/><feBlend in="SourceGraphic" in2="BackgroundImageFix" result="shape"/><feGaussianBlur result="effect1_foregroundBlur_18_13233" stdDeviation=".375"/></filter></defs></svg>
